X: 16932
T: Hawk Of Ballyshannon, The
R: reel
M: 4/4
K: Amajor
A/G/|FG AB|cf fe|f/g/a ec/B/|ce/f/ e c/B/|AF FF|E/D/C/D/ EA/G/|FG AB|
c2 BA|G/A/B/c/ BB|B2 A/B/c|e/c/d/f/ ec/e/|fg ag|f/e/c/f/ e/c/B/c/|
B/A/G/ Ec|B/A/G/F/ CF|F2 F||A/B/|cB AF|AF EC|EE/B,/ EE/B,/|E2 CB,|
Ac/4B/4A/ ec/e/|fe/f/ af|ec/B/ cB/A/|B2B2|ce ce|Ac Ac|ec/B/ ce|fg a3g|
c/e/c/f/ e/c/B/c/|B/A/G/F/ Ec|B/A/G/F/ CF|F2F|

